X:1
T:Toccata and Fugue in D Minor
T:Johann Sebastian Bach
T:Adp. from The H. W. Gray Co., Inc. Standard Series of Organ Compositions and the arrangement for piano by Louis Brassin
%%score { ( 1 5 6 ) | ( 2 3 4 ) }
L:1/8
Q:1/4=60
M:4/4
K:F
V:1 treble nm="Piano"
V:5 treble 
V:6 treble 
V:2 treble 
V:3 treble 
V:4 treble 
V:1
"^Adagio" a/4g/4[Q:1/4=10]!fermata!a/4 z/4[Q:1/4=40] g/8f/8e/8d/8.^c/ z/4[Q:1/4=10] d !fermata!z[Q:1/4=60]!f! A/4G/4[Q:1/4=10]!fermata!A/4 z/4[Q:1/4=40] E/4F/4^C/4 D[Q:1/4=10] !fermata!z | %1
[K:bass][Q:1/4=60] A,/4G,/4[Q:1/4=10]!fermata!A,/4 z/4[Q:1/4=40] G,/8F,/8E,/8D,/8.^C,/ z/4[Q:1/4=10] D, !fermata!z x/4 x/ x/ x/ x/ x/[K:treble] ^C/E/-[Q:1/4=48] | %2
 E2[Q:1/4=36] D2[Q:1/4=82] z2 z z/!f! ^C/[Q:1/4=10] | %3
[Q:1/4=82]"^Prestissimo" (3D/E/^C/(3D/E/C/ (3D/E/C/ .D/.E/ (3F/G/E/(3F/G/E/ (3F/G/E/ .F/.G/ | %4
 (3A/B/G/(3A/B/G/ (3A/B/G/[Q:1/4=48]A[Q:1/4=82] !fermata!z2 z z/ ^c/ | %5
 (3d/e/^c/(3d/e/c/ (3d/e/c/.d/.e/ (3f/g/e/(3f/g/e/ (3f/g/e/.f/.g/ | %6
 (3a/b/g/(3a/b/g/ (3a/b/g/[Q:1/4=48]a[Q:1/4=82] !fermata!z2 z z/!f! a/ | %7
 (3g/b/e/(3g/b/e/ (3f/a/d/(3f/a/d/ (3e/g/c/(3e/g/c/ (3d/f/B/(3d/f/B/ | %8
 (3c/e/A/(3c/e/A/ (3B/d/G/(3B/d/G/ (3A/c/F/(3A/c/F/ (3G/B/E/(3G/B/E/ | %9
 (3F/A/D/(3F/A/D/ (3E/G/^C/(3E/G/C/ z2[Q:1/4=48]"^Lento" z2 | %10
 ^C/E/G/B/- B/4A/4G/4F/4E/4 D/4C/4=B,/4 C/A,/C/ E/4G/4{/FG} F>[Q:1/4=36].E | %11
 !fermata![F,A,DF]2[Q:1/4=66]"^Allegro" z z/!mp! A/ .d/.e/.f/.d/ .e/.f/.g/.e/ | %12
 .f/.g/.a/.f/ .g/.a/.b/.g/ .a/.f/.g/.e/ .f/.d/.e/.^c/ | %13
 .d/.A/.B/.G/ .A/.F/.G/.E/ .F/.D/.G/.E/ .F/.D/.E/.^C/ | %14
[K:bass] .D/.A,/.B,/.G,/ .A,/.F,/.G,/.E,/ .F,/.D,/.G,/.E,/ .F,/.D,/.E,/.^C,/ | %15
[Q:1/4=72] D,[K:treble]!mf! z/4 F/4B/4F/4 z/4 E/4A/4E/4 z/4 D/4G/4D/4 z/4 ^C/4E/4A/4[Q:1/4=60] z/ [DFB]/ z/ [A,EA]/ z/ [B,DG]/ | %16
[Q:1/4=72] [A,^CEA]!mf! z/4 F/4B/4F/4 z/4 E/4A/4E/4 z/4 D/4G/4D/4 z/4 C/4E/4A/4[Q:1/4=60] z/ [DFB]/ z/ [A,EA]/ z/ [B,DG]/ | %17
 [A,^CEA-]2[Q:1/4=72]!mp! A/4G/4F/4E/4[I:staff +1] D/4C/4=B,/4C/4[I:staff -1] x E/4F/4G/4A/4G/4F/4E/4F/4[I:staff +1] D/4F/4[I:staff -1] A/4^c/4 | %18
 d/ z/ z/ e/4[Q:1/4=60]f/4 g/4a/4[Q:1/4=20]!fermata!_b/[Q:1/4=60] z/ [Bfb]/ z/ [Aea]/ z/ [Gdg]/ [A^cea][Q:1/4=72] z/4 f/4b/4f/4[Q:1/4=66]"^ritard"!f! | %19
[I:staff +1] c/4[I:staff -1] e/4a/4e/4[I:staff +1] B/4[I:staff -1] d/4g/4d/4[I:staff +1] A/4[I:staff -1] ^c/4e/4a/4!ff![Q:1/4=60] z/ [Bdfb]/ z/ [A=cea]/ z/ [Gdg]/ [A^cea][DF^G=Bd] | %20
 [^CEA^c]>[Q:1/4=72]=B[I:staff +1] A/^c/[I:staff -1] e/4g/4[Q:1/4=20]!fermata!_b/[Q:1/4=72] a/4g/4f/4e/4 f/4e/4d/4c/4 d/4=c/4_B/4A/4[I:staff +1] G/4F/4E/4D/4 | %21
[Q:1/4=48][I:staff -1] !fermata![GB^c-e]4!p![Q:1/4=82]"^Prestissimo" (3c/e/c/(3B/c/B/ (3c/e/c/(3B/c/B/ | %22
 (3^c/e/c/(3B/c/B/ (3c/e/c/(3B/c/B/ (3G/B/G/(3E/G/E/ (3G/B/G/(3E/G/E/ | %23
 (3G/B/G/(3E/G/E/ (3G/B/G/(3E/G/E/ (3^C/E/C/(3B,/C/B,/ (3C/E/C/(3B,/C/B,/ | %24
 (3^C/E/C/(3B,/C/B,/ (3C/E/C/(3B,/C/B,/ (3C/E/C/(3E/G/E/ (3C/E/C/(3E/G/E/ | %25
 (3^C/E/C/[Q:1/4=78](3E/G/E/ (3C/!mp!E/C/(3E/G/E/ (3G/B/G/[Q:1/4=72](3B/G/B/ (3G/B/!mf!G/(3B/G/B/ | %26
 (3^c/B/c/[Q:1/4=66](3e/c/e/ (3c/!f!e/c/(3e/c/e/[Q:1/4=60]"^Maestoso"!ff! z [Acea] z [Adfa] | %27
 z [Gdg]2 x z [A^ceg] z2 | x2 x x/[Q:1/4=54]"^ritard" [EA^c]/ [DAd][F,A,DF] E2 | %29
 D4 z4[Q:1/4=20][Q:1/4=92]"^Andante" | z8 | z4 z/ d/c/d/ B/d/A/d/ | %32
 G/d/^F/d/ G/d/A/d/ B/d/D/d/ E/d/F/d/ | G/d/^F/d/ G/d/A/d/ BdBd | %34
!f! (_e.G)!mp!(e.G)!f! .c.A!mp!.c.A |!f! (d.F)!mp!(d.F)!f!"^simile" .B.G!mp!.B.G | %36
!f! (^c.E)!mp!(c.E)!f! .A.F!mp!.A.F |!f! (G.^C)!mp!(G.C)!f! .F.D!mp!.F.D | %38
!f! (E.B,)!mp!(E.B,)!mf! z/ a/g/a/ f/a/e/a/ | d/a/^c/a/ d/a/e/a/ f/a/A/a/ =B/a/c/a/ | %40
 d/a/^c/a/ d/a/e/a/!mp! f/a/e/a/ d/a/=c/a/ | B/a/c/a/ d/g/B/g/ e/g/d/g/ c/g/B/g/ | %42
 A/g/B/g/ c/f/A/f/ d/f/c/f/ B/f/A/f/ | G/f/A/f/ B/e/G/e/ ^c/e/B/e/ A/e/G/e/ | %44
 F/e/G/e/ A/d/F/d/ E/e/E/e/ F/d/F/d/ | B/^c/B/c/ A/d/F/d/ E/e/E/e/ F/d/F/d/ | %46
 z/!mf!!<(! d/^c/d/ =B/d/c/B/!<)!!f! c2 z2 | z/ d/^c/d/ f/d/c/=B/ c2 e2- | ed-d^c =c2 B2 | %49
 A2 A2 G2 G2 | ^F A2 _e d2 z g | g^f g2 Bddd | dddd dddd | %53
!f! [Gd]/[Bg]/[B=f]/[Bg]/ [Ge]/[Af]/[Fd]/[Ge]/ [Ec]/[ca]/[Bg]/[ca]/ [Af]/[Bg]/[Ge]/[Af]/ | %54
 [Fd]/[db]/[ca]/[db]/ [Bg]/[ca]/[Af]/[Bg]/ [Ge]/[ec']/[db]/[ec']/ [ca]/[db]/[Bg]/[ca]/ | %55
 f/_e/d/c/ [Bd]/[Ac]/[GB]/[FA]/ [GB]/[Bd]/[GB]/[FA]/ [=EG]/[GB]/[EG]/[DF]/ | %56
 [CE]/[DF]/[EG]/[FA]/ B/d/c/B/ A2!mp! .c.B | .A.G.A.B .c.E.F.G | .A.G.A.B!p! c/B/A/G/ F/ x/ x | %59
!mf! d/c/B/A/ G/ x/ x!p! e/d/c/B/ A/ x/ x |!mf! f/e/d/c/ B/ x/ x!p! g/f/e/d/ c/ x/ x | %61
!mf! a/f/e/f/ c/f/e/f/ a/f/e/f/ c/f/e/f/ | g/e/d/e/ c/e/d/e/ g/e/d/e/ c/e/d/e/ | %63
 a/f/e/f/ c/f/e/f/!p! a/f/e/f/ c/f/e/f/ | g/e/d/e/ c/e/d/e/ g/e/d/e/ c/e/d/e/ | %65
 f/g/f/e/ d/ x/ x x2 f/a/f/d/ | x2 f/a/f/d/ x2 e/g/e/c/ | x2 e/g/e/c/ x2 d/f/d/B/ | %68
 x2 d/f/d/B/ x2 ^c/e/c/B/ | x2 ^c/e/c/B/ z/!mf! a/g/a/ f/a/e/a/ | %70
 d/a/^c/a/ d/a/e/a/ f/a/A/a/ =B/a/c/a/ | d/a/^c/a/!f! [df][ce] d[A=c][GB][^FA] | %72
 B/A/G/=F/ E/D/^C/=B,/ x/ x/ x[K:bass] G,/_B,/G,/E,/ | x2 G,/B,/G,/E,/ x2 A,/D/A,/F,/ | %74
 x2 A,/D/A,/F,/ x2 G,/B,/G,/E,/ | x2 G,/B,/G,/E,/ x2 A,/D/A,/F,/ | x2 A,/D/A,/F,/ x2 B,/^C/B,/G,/ | %77
 x2 B,/^C/B,/G,/ x2 D/F/D/A,/ | x2 D/F/D/A,/!f! x2 B,/^C/B,/G,/ | %79
!mp! x2 B,/^C/B,/G,/ x2 D/F/D/A,/ | x2 D/F/D/A,/ x2 ^C/E/C/B,/ | x2 ^C/E/C/B,/!f! x2 D/F/D/ x/ | %82
 x/ D/B,/ x A,/F,/ x D,/A,,/ x D,/^C,/=B,,/ | %83
 x/ _B,/A,/G,/ x/ G,/F,/E,/ x/ B,/A,/G,/ x/ G,/F,/E,/ |[K:treble] x2 x/ F/E/D/ A/ x/ x z/ e/d/^c/ | %85
 d/_e/4d/4=c/4B/4A/4G/4 ^FA [B,A][=B,G][CGc][DG=B] | %86
 [_EG_e][DGd][EGe][=B,G=B] [CGc][B,GB][CGc][DGd] | %87
 [_EG_e][DGd][EGe][FGf]!mf! g/4_a/4g/4a/4g/4a/4g/4a/4g/4a/4g/4a/4g/4a/4g/4a/4 | %88
 g/4_a/4g/4a/4g/4a/4g/4a/4g/4a/4g/4a/4g/4a/4g/4a/4 g/4a/4g/4a/4g/4a/4g/4a/4g/4a/4g/4a/4g/4a/4g/4a/4 | %89
 g/4_a/4g/4a/4g/4a/4g/4a/4g/4a/4g/4a/4g/4a/4g/4a/4 z/ g/f/g/ [G_e]/[_Af]/[Fd]/[Ge]/ | %90
 c/f/_e/f/ [Fd]/[Ge]/[_Ec]/[Fd]/ B/e/d/e/ [Ec]/[Fd]/[DB]/[Ec]/ | %91
 A/d/c/d/ [GB]/[Ac]/[=FA]/[GB]/ [_EG]/[GB]/[^FA]/[GB]/ [Ac]/[GB]/[FA]/[=EG]/ | %92
 ^FA d/G/c/F/ B/G/d/A/ B/G/A/F/ | G/d/^F/d/ G/d/A/d/ B/G/d/A/ B/G/c/A/ | %94
!>(! d/c/B/A/ B/!f!A/B/!>)!G/!mf! A/B/c/d/!f! _e/d/c/!mf!d/ | %95
 B/c/A/B/ G=B!<(! c/_e/f/!<)!!f!g/!>(! _a/g/!mf!f/!>)!g/ | _e/f/d/e/!mp! cB AB- BA- | %97
 AG- G^F =F_E- ED/B/ |!<(! A/B/A/G/ ^F/!mf!_e/d/c/ B/a/!<)!!f!g/^f/!>(! g>!>)!!mf!=f | %99
 _e/f/d/e/ ^c2!>(! d2!>)! =c2 | B2 A^c defd | e4 d3!mp! f | [Gg][Ad][G^c][Fd] [Ge][Fd][Ec][Ad] | %103
 [Be][Ad][G^c][Fd] [Ae][eg][df][Ad] | [GB]!mf![Ge][Ad][Fd]!f! ^c2 de | fef^c dcde | %106
 fefg a/b/g/a/ f/g/e/f/ | d/A/^c/A/ d/A/e/A/ f/A/e/A/ f/A/g/A/ | a/A/e/A/ f/A/g/A/ a2 z2 | z8 | %110
 z4 z/!f! [Ge]/[Fd]/[E^c]/ [Fd] z/ f/ | e/f/g/a/ b/a/g/a/ fe d/e/f/_e/ | %112
 d/c/B/A/ G/A/B/c/ A2 z c- | cB z g _e/f/d/e/ c/B/A/G/ | z8 | z8 | z8 | z2 G/B/G/D/ z2 G/B/G/D/ | %118
 C x ^F/A/F/_E/ C x F/A/F/E/ | D z [DGd][D^Fc] [B,GB]2 [CGc][G=Bd] | %120
 [Gc_e]2 [Fcf][B=eg] [Afa]2 [FBf][FA_e] | %121
 [FBd]/[G_e]/[Fd]/[_Ec]/ [DB]/[Ec]/[DB]/[CA]/ [B,G]/[Ec]/[DB]/[CA]/ [B,G]/[CA]/[B,G]/[A,^F]/ | %122
 [B,G]/[A,=F]/[G,=E]/[F,D]/ [E,^C][G,E] [A,F]/[=B,G]/[CA]/[D=B]/ [E^c]/[Fd]/[Ge]/[Af]/ | %123
 [_Bg][Af]/[Ge]/ [Fd]/A/[E^c]/A/ defg | a^cde fefd | .e[Q:1/4=82] dd^c .d[Q:1/4=72] f e2 | %126
[Q:1/4=36] !fermata![DFBd]4 z/4[Q:1/4=72]"^Prestissimo" f/4g/4a/4b/4 x c/4d/4_e/4f/4 x/4 x/ | %127
 z/4 A/4B/4c/4d/4 x G/4A/4B/4c/4 x F/4G/4A/4B/4 x C/4D/4_E/4F/4 x/4 x/ | %128
 x/4 A,/4B,/4C/4D/4 x B,/4C/4D/4_E/4 x C/4D/4=E/4^F/4 x[Q:1/4=60] F/4G/4A/4 z/4[Q:1/4=36] c/4d/4G/4 | %129
[Q:1/4=60]"^Adagiosissimo" !arpeggio![EGBe]4- [EGBe]2 [DFAd]2 |[Q:1/4=48] !arpeggio![DF^G=Bd]4 z4 | %131
 z2 z [E^G=Bd] [Ec-]4 | %132
 [Ec]4[Q:1/4=72]"^Presto" z/4 G/4F/4G/4 E/4 E/4D/4E/4 C/4 A/4G/4A/4 F/4 F/4E/4F/4 | %133
 D/4 =B/4A/4B/4 G/4 G/4F/4G/4 E/4 c/4B/4c/4 A/4 d/4c/4d/4 B/4 e/4d/4e/4 c/4 f/4e/4f/4 d/4 g/4f/4g/4 e/4 c/4B/4c/4 | %134
 A/4 d/4c/4d/4 =B/4 ^G/4^F/4G/4 E/4 c/4B/4c/4 A/4 =F/4E/4F/4 D/4 B/4A/4B/4 C/4 A/4=G/4A/4 =B,/4 ^G/4^F/4G/4 E/4 C/4B,/4A,/4 | %135
 x/4 D/4C/4=B,/4 x/4 E/4D/4C/4 x/4 F/4E/4D/4 x/4[Q:1/4=66] G/4F/4E/4 x/4[Q:1/4=60] A/4G/4F/4[Q:1/4=44] x/4 [G,G]/4[A,A]/4[B,=B]/4 [Cc]2 | %136
[Q:1/4=72]"^a tempo" .[^CEA^c] x/4 A,/4C/4E/4 .A [cea^c'] .[dfad'] x/4 A,/4D/4F/4 .A [dfad'] | %137
 .[=Bdg=b] x/4 G,/4=B,/4D/4 .G [Bdgb] .[cegc'] x/4 G,/4C/4E/4 .G [cegc'] | %138
 .[Acfa] z/4 F,/4A,/4C/4 .F [Acfa] .[Bdfb] x/4 F,/4B,/4D/4 .F [Bdfb] | %139
 .[Begb][Q:1/4=66] z .E [Begb] .[Ad^fa][Q:1/4=60] z .D [Adfa][Q:1/4=66] | %140
[Q:1/4=60]"^Molto Adagio" [Aa]2 [Gg]4 [Ff]2 | [EAe]4 [CDcd]2 z [DEBd] | %142
[Q:1/4=44]!fff! !fermata![FAd]8 |] %143
V:2
!mf! A/4G/4!ped!!fermata!A/4 z/4!ped-up! G/8F/8E/8D/8.^C/ z/4 D !fermata!z[K:bass] A,/4G,/4!ped!!fermata!A,/4 z/4 E,/4!ped-up!F,/4^C,/4 D, !fermata!z | %1
!ff! A,,/4G,,/4!ped!!fermata!A,,/4 z/4!ped-up! G,,/8F,,/8E,,/8D,,/8.^C,,/ z/4 D,, !fermata!z!ped! z/4 B,,/^C,/E,/ G,/B,/ z | %2
 z2 G,/!ped-up!E,/!fermata!^F, z2 z z/ ^C,/ | %3
 (3D,/E,/^C,/(3D,/E,/C,/ (3D,/E,/C,/ .D,/.E,/ (3F,/G,/E,/(3F,/G,/E,/ (3F,/G,/E,/ .F,/.G,/ | %4
 (3A,/B,/G,/(3A,/B,/G,/ (3A,/B,/G,/A, !fermata!z2 z z/[K:treble]!p! ^C/ | %5
 (3D/E/^C/(3D/E/C/ (3D/E/C/.D/.E/ (3F/G/E/(3F/G/E/ (3F/G/E/.F/.G/ | %6
 (3A/B/G/(3A/B/G/ (3A/B/G/A !fermata!z2 z z/ A/ | %7
 (3G/B/E/(3G/B/E/ (3F/A/D/(3F/A/D/ (3E/G/C/(3E/G/C/ (3D/F/B,/(3D/F/B,/ | %8
[K:bass] (3C/E/A,/(3C/E/A,/ (3B,/D/G,/(3B,/D/G,/ (3A,/C/F,/(3A,/C/F,/ (3G,/B,/E,/(3G,/B,/E,/ | %9
 (3F,/A,/D,/(3F,/A,/D,/ (3E,/G,/^C,/(3E,/G,/C,/!ff!!ped! z2 C,/E,/G,/B,/ | z2!ped-up! z2 z4 | %11
 !fermata![D,,,D,,]2 z2[K:treble] z/4!p! A/A/A/A/ A/A/A/A/4 | %12
 z/4 A/A/A/A/ A/A/A/A/ A/A/A/A/ A/A/A/A/4 | z/4 A/A/A/A/ A/A/A/A/ A/A/A/A/ A/A/A/A/4 | %14
 z/4 A/A/A/A/ A/A/A/A/ A/A/A/A/ A/A/A/A/4 |[K:bass] z .D .C .B, .A,!f! [D,,D,][C,,C,][B,,,B,,] | %16
 [A,,,A,,] .D .C .B, .A,!f! [D,,D,][C,,C,][B,,,B,,] | [A,,,A,,]2 z2 A,/4=B,/4^C/4D/4 x x2 | %18
[K:treble] z/!<(! A/4!mf!=B/4^c/4d/4 z/ z[K:bass]!<)!!ff! [D,,D,][C,,C,][B,,,B,,] [A,,,A,,][K:treble]!f! d/4 z/4 z/ | %19
 z2 z[K:bass] [D,,D,][C,,C,][B,,,B,,][A,,,A,,][^G,,,^G,,] | [=G,,,=G,,]2[K:treble] z2 z4 | %21
[K:bass] [G,,,G,,]4 z4 | %22
[K:treble] (3E/G/E/(3^C/E/C/ (3E/G/E/(3C/E/C/[K:bass] (3B,/^C/B,/(3G,/B,/G,/ (3B,/C/B,/(3G,/B,/G,/ | %23
 (3B,/^C/B,/(3G,/B,/G,/ (3B,/C/B,/(3G,/B,/G,/ (3E,/G,/E,/(3^C,/E,/C,/ (3E,/G,/E,/(3C,/E,/C,/ | %24
 (3E,/G,/E,/(3^C,/E,/C,/ (3E,/G,/E,/(3C,/E,/C,/ (3E,/G,/E,/(3G,/B,/G,/ (3E,/G,/E,/(3G,/B,/G,/ | %25
"^rit. and cresc." (3E,/!mp!G,/E,/(3G,/B,/G,/ (3E,/G,/E,/(3G,/B,/G,/ (3E,/!mf!G,/E,/(3G,/E,/G,/ (3B,/^C/B,/(3C/B,/C/ | %26
 (3E/!f!^C/E/(3C/E/C/ (3E/C/E/(3C/E/C/ G, [E,A,CE] F, [F,A,DF] | x [D,G,B,D]2 x x [E,A,^CE] x2 | %28
!8vb(! D,,/=B,,,/^C,,/A,,,/ _B,,,/^G,,,/A,,,/!8vb)! x/ x x E,2 | %29
 [D,A,]4[K:treble]!f! z/"^FUGA" A/G/A/ F/A/E/A/ | D/A/^C/A/ D/A/E/A/ F/A/A,/A/ =B,/A/C/A/ | %31
 D/A/^C/A/ D/A/E/A/ F^FG=C |[K:bass] B,A,B,C D^F,G,A, | B,A,B,^F,!mf! G,/G/G,/G/ D/G/D/G/ | %34
 C/_E/C/E/ C/E/C/E/ C/F/C/F/ C/F/C/F/ | B,/D/B,/D/ B,/D/B,/D/ B,/=E/B,/E/ B,/E/B,/E/ | %36
 A,/^C/A,/C/ A,/C/A,/C/ F,/D/F,/D/ F,/D/F,/D/ | %37
 E,/B,/E,/B,/ E,/B,/E,/B,/ D,/A,/D,/A,/ D,/A,/D,/A,/ | %38
 E,/G,/E,/G,/ E,/G,/E,/G,/!f! [F,A,][E,A,][D,A,][G,A,] | %39
 [F,A,][E,A,][F,A,][^C,A,] [D,A,][C,A,][D,A,][E,A,] | [F,A,][E,A,][F,A,][^C,A,]!f! [D,A,]2 [F,D]2 | %41
 [G,D]2 z2!mp! [C,C]2 [E,C]2 | [F,C]2 z2!f! [B,,B,]2 [D,B,]2 | [E,B,]2 z2!mp! [A,,A,]2 [^C,A,]2 | %44
 [D,A,]2 z!f! [F,D] .[B,^C][B,C].[A,D][A,D] | [G,E]2 z!mp! [A,D] .[B,^C][B,C].[A,D][A,D] | %46
 [^G,E]2 z2 A,2[K:treble] E/G/F/E/ | F2 D2 A,/[I:staff -1]A/G/A/[I:staff +1] ^C/G/F/E/ | %48
[K:bass] z/ D/^C/D/ A, x x4 | %49
 ^C/=E/A,/C/ D,/[I:staff -1]_E/[I:staff +1]D/=C/ =B,/D/G,/B,/ C,/[I:staff -1]D/[I:staff +1]C/_B,/ | %50
 A,/C/^F,/A,/ D,/C/B,/A,/[K:treble] B,/A/G/^F/ G/B,/A,/G,/ |[K:bass] D2!8vb(! x2 x4 | %52
 B,,,/D,,/D,,,/D,,/ E,,,/D,,/^F,,,/D,,/ G,,,/D,,/F,,,/D,,/ G,,,/D,,/A,,,/D,,/ | %53
 B,,,2!8vb)! z [=B,,,=B,,] [C,,C,]2 z [^C,,^C,] | [D,,D,]2 z [D,,D,] [E,,E,]2 z [E,,E,] | %55
 [F,,F,][A,,,A,,][B,,,B,,][D,,D,] [G,,,G,,]2 z [B,,,B,,]- | %56
 [B,,,B,,][A,,,A,,][G,,,G,,][C,,C,] z/!mf! C/B,/C/ A,/C/G,/C/ | %57
 F,/C/E,/C/ F,/C/G,/C/ A,/C/C,/C/ D,/C/E,/C/ | F,/C/E,/C/ F,/C/G,/C/ A,2[K:treble] x/!p! _E/D/C/ | %59
 B, x!mf! x/ F/E/D/ C x x/!p! G/F/E/ |"^simile" D x x/!mf! A/G/F/ E x x/!p! B/A/G/ | %61
 F z!mf! c z!p! F z c z |!mf! E z c z!p! E z c z |!mf! F z c z F z c z |!mf! E z c z!p! E z c z | %65
!mf! D x x/ c/=B/A/ B/G/B/d/ x2 |!p! =B/G/B/d/ x2!mf! _B/G/B/c/ x2 | %67
!p! B/G/B/c/ x2!mf! A/F/A/c/ x2 |!p! A/F/A/c/ x2!mf! G/E/G/B/ x2 |!p! G/E/G/B/ x2!mp! A^cdG | %70
 FA=B^c dcde | fe z/ A/G/A/ z/ ^F/E/F/[K:bass] z/ D/=C/D/ | B,/C/B,/A,/ G,/F,/E,/D,/ [^C,^C] x z2 | %73
!mp! ^C, x z2!f! D, x z2 |!mp! D, x z2!f! ^C, x z2 |!mp!"^simile" ^C, x x2!f! D, x x2 | %76
!mp! D, x z2!f! E, x z2 |!mp! E, x z2!f! F, x x2 |!mp! F, x z2 E, x z2 | E, x z2!f! F, x z2 | %80
!mp! F, x z2!f! G, x z2 |!mp! G, x z2 A, x x x/ A,/ |!f! B,/ x G,/F,/ x D,/A,,/ x F,,/D,,/ x/ x | %83
 ^C,/ x/ x F,/ x/ x D,/ x/ x F,/ x/ x | %84
!ff! D,/E,/4F,/4G,/4A,/4=B,/4^C/4 D/ x/ x[K:treble] A,/=B,/4^C/4D/4E/4F/4G/4 A/G/F/E/ | %85
 F z z/ _E/D/C/[K:bass] z/ G,,/[F,,F,]/G,,/ [_E,,_E,]/G,,/[D,,D,]/G,,/ | %86
 [C,,C,]/G,,/[=B,,,=B,,]/G,,/ [C,,C,]/G,,/[D,,D,]/G,,/ [_E,,_E,]/G,,/[G,,,G,,]/G,,/ [A,,,A,,]/G,,/[B,,,B,,]/G,,/ | %87
 [C,,C,]/G,,/[=B,,,=B,,]/G,,/ [C,,C,]/G,,/[D,,D,]/G,,/!ff! [_E,,_E,]/G,/[D,F]/G,/ [C,_E]/G,/[=B,,D]/G,/ | %88
 [C,C]/G,/[D,=B,]/G,/ [_E,C]/G,/[F,D]/G,/ [G,_E]/G,/[G,,=B,]/G,/ [A,,C]/G,/[=B,,D]/G,/ | %89
 [C,_E]/G,/[=B,,D]/G,/ [C,E]/G,/[D,F]/G,/!ff! [_E,G][=B,,,=B,,][C,,C,][D,,D,] | %90
 [_E,,_E,][A,,,A,,][_B,,,_B,,][C,,C,] [D,,D,][G,,,G,,][A,,,A,,][B,,,B,,] | %91
 [C,,C,][D,,D,][G,,G,][D,,D,] [_E,,_E,][B,,,B,,][A,,,A,,][C,,C,] | %92
 z/ D/C/D/ B,/D/A,/D/ G,/D/^F,/D/ G,/D/A,/D/ | B,/D/D,/D/ E,/D/^F,/D/ G,/D/F,/D/ G,/D/A,/D/ | %94
 B,!f!A, G,4!>(! ^F,2!>)! | G,A, B,/A,/G,/F,/ _E,!f!_E!mf! D2 | %96
 C!mp!D _E/F/D/E/ C/E/D/F/ G/F/E/F/ | D/B,/_E/D/ ^C/A,/D/=C/ =B,/G,/C/_B,/ A,/F,/B,/D/ | %98
 C/!mf!D/C/B,/ A,/C/!f!B,/A,/ G,/C/B,/A,/!mf! B,/C/B,/A,/ | %99
 G,/A,/F,/G,/ =E,2!mf! z/!mp! _E/D/=C/ D/C/B,/A,/ |!mf! G,2 A,/B,/A,/G,/ F,/G,/E,/F,/ D,2 | %101
[K:treble] G/A/G/A/ B/A/G/A/ F/G/E/F/[K:bass] D/=C/B,/A,/ | %102
!mf! B,/A,/G,/F,/ E,/F,/E,/D,/ ^C,/A,,/D,/A,,/ E,/A,,/F,/A,,/ | %103
 G,/A,,/F,/A,,/ E,/A,,/D,/A,,/ ^C,/A,/A,,/A,/ D,/A,/F,/D/ | G,/D/E,/^C/ F,/D/D,/D/ [A,,A,]4- | %105
 [A,,A,]8- | [A,,A,]8- | [A,,A,]8 | z4!ff! z/ A,,/[G,,G,]/A,,/ [F,,F,]/A,,/[E,,E,]/A,,/ | %109
 [D,,D,]/A,,/[^C,,^C,]/A,,/ [D,,D,]/A,,/[E,,E,]/A,,/ [F,,F,]/A,,/[A,,,A,,]/A,,/ [=B,,,=B,,]/A,,/[C,,C,]/A,,/ | %110
 [D,,D,]/A,,/[^C,,^C,]/A,,/ [D,,D,]/A,,/[E,,E,]/A,,/ [F,,F,]2 x/ ^C/ D | D2 ^C2 D/ x/ x x2 | x8 | %113
 x4 C/D/B,/C/ A,/G,/^F,/E,/ |!f! ^F,/D,/F,/G,/ A,/D/A,/G,/!mp! ^F, x A,/D/A,/F,/ | %115
!f! G, x B,/D/B,/A,/!mp! G, x B,/D/C/B,/ |!f!"^simile" A, x C/_E/C/B,/!mp! A, x C/E/C/B,/ | %117
!f! A, x z2!mp! B, x z2 |!f! x8 | ^F, x x2 x4 | x8 | %121
 [B,,,B,,][_E,,_E,][F,,F,][F,,,F,,] [G,,,G,,][C,,C,][D,,D,][D,,,D,,] | %122
 [G,,,G,,]2 z/ [A,,,A,,]/[G,,,G,,]/[A,,,A,,]/ [F,,,F,,][D,,,D,,] [A,,,A,,]2 | z4 z ^CDE | %124
 FA,=B,^C DCDB, | %125
"^ritard" .[A,,A,] [F,,F,][G,,G,][A,,A,] .[F,,F,]!8vb(! [D,,,D,,][G,,,G,,][A,,,A,,] | %126
 !fermata![B,,,B,,]4!8vb)!!ff! x[K:treble] x/4 A/4B/4c/4d/4 x F/4G/4A/4 | %127
 B/4 x A/4G/4F/4_E/4 x G/4F/4E/4D/4 x[K:bass] A,/4B,/4C/4D/4 x F,/4G,/4A,/4 | %128
 B,/4 z C/4B,/4A,/4G,/4 x D/4C/4B,/4A,/4 x _E/4D/4C/4"^molto ritard"B,/4 x/ x/4 z/ G,/ | %129
 !arpeggio![^C,,^C,G,-B,-^C-]4 [G,B,C]2 [A,D]2 | %130
 !arpeggio![^G,,,^G,,=B,,D,F,^G,]4 z/ [^G,,^G,]/[=B,,=B,]/[F,,F,]/ [G,,G,]/[D,,D,]/[F,,F,]/[=B,,,=B,,]/ | %131
 x2 z [E,^G,=B,D] [E,-A,C-]4 | [E,G,C]4 x4 | z8 |!ff! z8 | %135
 ^G,/4 x/4 x/ A,/4 x/4 x/ =B,/4 x/4 x/"^ritard" C/4 x/4 x/ D/4 x/4 x/ E/4 x/4 x/ z [E,,E,] | %136
 .[G,,^C,E,G,]!ped! G,,,/4G,,/4C,/4E,/4!ped-up! .G, G, .[F,A,]!ped! F,,,/4F,,/4A,,/4D,/4!ped-up! .F, [F,A,] | %137
 .[F,=B,]!ped! F,,,/4F,,/4=B,,/4D,/4!ped-up! .F, [F,B,] .[E,G,]!ped! E,,,/4E,,/4G,,/4C,/4!ped-up! .E, [E,G,] | %138
 .[E,A,]!ped! E,,,/4E,,/4A,,/4C,/4!ped-up! .E, [E,A,] .[D,F,]!ped! D,,,/4D,,/4F,,/4B,,/4!ped-up! .D, [D,F,B,] | %139
 .[^C,G,B,]"^ritard"!ped! z/4 E,/4G,/4B,/4!ped-up! .C, [C,G,B,] .[=C,^F,A,D]!ped! z/4 D,/4F,/4A,/4!ped-up! .C, [C,F,A,D] | %140
 [G,,,G,,]2 [B,,,B,,]2 [E,,,E,,]2 [F,,,F,,]2 | x2 [A,=C]2 x2 z [D,E,B,] | !fermata![D,A,]8 |] %143
V:3
 x17/4[K:bass] x15/4 | x4 [D,,,D,,]4- | [D,,,D,,]4 x4 | x8 | x15/2[K:treble] x/ | x8 | x8 | x8 | %8
[K:bass] x8 | z4 [D,,,D,,]4- | [D,,,D,,]2 x2 x4 | x4[K:treble] x4 | x8 | x8 | x8 |[K:bass] x8 | %16
 x8 | x8 |[K:treble] x5/2[K:bass] x9/2[K:treble] x | x11/4[K:bass] x21/4 | x3/2[K:treble] x13/2 | %21
[K:bass] x8 |[K:treble] x4[K:bass] x4 | x8 | x8 | x8 | x4 [G,,,G,,]2 [F,,,F,,]2 | %27
 [B,,,B,,]3 [A,,,A,,]/[G,,,G,,]/ [A,,,A,,]>[E,,,E,,] [F,,,F,,]/[D,,,D,,]/[E,,,E,,]/[^C,,,^C,,]/ | %28
!8vb(! D,,,/=B,,,,/^C,,,/A,,,,/ _B,,,,/^G,,,,/A,,,,/!8vb)![G,,=G,]/ [F,,F,][D,,A,,D,] [A,,,E,,A,,]2 | %29
 [D,,,D,,]4[K:treble] x4 | x8 | x8 |[K:bass] x8 | x8 | x8 | x8 | x8 | x8 | x8 | x8 | x8 | x8 | x8 | %43
 x8 | x8 | x8 | x11/2[K:treble] x5/2 | x8 |[K:bass] z2 z/ A,/G,/A,/ ^F,/D/^C/D/ G,/=F/_E/D/ | x8 | %50
 x4[K:treble] x4 | %51
[K:bass] z/!ff!!8vb(! D,,/C,,/D,,/ B,,,/D,,/A,,,/D,,/ G,,,/D,,/^F,,,/D,,/ G,,,/D,,/A,,,/D,,/ | x8 | %53
 x2!8vb)! x6 | x8 | x8 | x4 [F,,,F,,]2 x2 | x8 | x11/2[K:treble] x5/2 | x8 | x8 | x8 | x8 | x8 | %64
 x8 | x8 | x8 | x8 | x8 | x8 | x8 | x6[K:bass] x2 | x4 A,,,/A,,/^C,/E,/ x2 | %73
 A,,,/A,,/^C,/E,/ x2 A,,,/A,,/D,/F,/ x2 | A,,,/A,,/D,/F,/ x2 A,,,/A,,/^C,/E,/ x2 | %75
 A,,,/A,,/^C,/E,/ z2 A,,,/A,,/D,/F,/ z2 | A,,,/A,,/D,/F,/ x2 ^C,,/^C,/E,/G,/ x2 | %77
 ^C,,/^C,/E,/G,/ x2 D,,/D,/F,/A,/ x2 | D,,/D,/F,/A,/ x2 ^C,,/^C,/E,/G,/ x2 | %79
 ^C,,/^C,/E,/G,/ x2 D,,/D,/F,/A,/ x2 | D,,/D,/F,/A,/ x2 E,,/E,/G,/B,/ x2 | %81
 E,,/E,/G,/B,/ x2 F,,/F,/A,/^C/ x2 | x8 | x8 | x4[K:treble] x4 | x4[K:bass] x4 | x8 | x8 | x8 | %89
 x8 | x8 | x8 | [D,,,D,,]8- | [D,,,D,,]8- | [D,,,D,,]2 z!mf! G,,!<(! C,!f!A,,!<)!D,!mf!D,, | %95
 G,,2 z G,, C,3 =B,, | C,2 x2 x4 | x8 | x8 | x4 ^F,2 D,2 | x8 |[K:treble] x6[K:bass] x2 | x8 | x8 | %104
 x8 | x8 | x8 | x8 | x8 | x8 | x6 z F, | G,E,A,A,, D,2 z A,, | B,,G,,C,C,, F,,2 z A,, | %113
 B,,2 z B,, C,2 z A,, | D,2 x2 D,,/D,/^F,/G,/ x2 | D,,/D,/G,/A,/ x2 D,,/D,/G,/A,/ x2 | %116
 [D,,,D,,]/^F,/A,/B,/ x2 [D,,D,]/F,/A,/B,/ x2 | [D,,,D,,]/B,/D/^F/ x2 [D,,D,]/G,/B,/D/ x2 | %118
 [D,,,D,,]/A,/C/_E/ x2!mp! [D,,D,]/A,/C/E/ x2 | %119
 z/!ff! D,,/[C,,C,]/D,,/ [B,,,B,,]/D,,/[A,,,A,,]/D,,/ [G,,,G,,]/G,,/[=F,,=F,]/G,,/ [_E,,_E,]/G,,/[D,,D,]/G,,/ | %120
 [C,,C,]/C,,/[B,,,B,,]/C,,/ [A,,,A,,]/C,,/[G,,,G,,]/C,,/ [F,,,F,,]/F,,/[_E,,_E,]/F,,/ [D,,D,]/F,,/[C,,C,]/F,,/ | %121
 x8 | x8 | [D,,,D,,]8- | [D,,,D,,]4 z2 z D, | x5!8vb(! x3 | x4!8vb)! x[K:treble] x3 | %127
 x5[K:bass] x3 | x8 | x4 [F,,F,]3 [D,,D,] | x8 | [D,,D,]/[^G,,,^G,,]/.[A,,,A,,] [E,,,E,,]6- | %132
 [E,,,E,,]4 x4 | x8 | x8 | x8 | x8 | x8 | x8 | %139
 x ^C,,,/4^C,,/4G,,/4B,,/4 x2 x =C,,,/4=C,,/4^F,,/4A,,/4 x2 | x8 | %141
 [A,,,E,,A,,]4 [B,,F,]2 [G,,,G,,]2 | x8 |] %143
V:4
 x17/4[K:bass] x15/4 | x8 | z2 [D,A,]2 x4 | x8 | x15/2[K:treble] x/ | x8 | x8 | x8 |[K:bass] x8 | %9
 x8 | x8 | x4[K:treble] x4 | x8 | x8 | x8 |[K:bass] x8 | x8 | x8 | %18
[K:treble] x5/2[K:bass] x9/2[K:treble] x | x11/4[K:bass] x21/4 | x3/2[K:treble] x13/2 | %21
[K:bass] x8 |[K:treble] x4[K:bass] x4 | x8 | x8 | x8 | x8 | B,3 A,/G,/ A,>E, F,/D,/E,/^C,/ | %28
!8vb(! x6!8vb)! A,>G, | G,F,/E,/ !fermata!F,2[K:treble] x4 | x8 | x8 |[K:bass] x8 | x8 | x8 | x8 | %36
 x8 | x8 | x8 | x8 | x8 | x8 | x8 | x8 | x8 | x8 | x11/2[K:treble] x5/2 | x8 |[K:bass] x8 | x8 | %50
 x4[K:treble] x4 |[K:bass] x/!8vb(! x15/2 | x8 | x2!8vb)! x6 | x8 | x8 | x8 | x8 | %58
 x11/2[K:treble] x5/2 | x8 | x8 | x8 | x8 | x8 | x8 | x8 | x8 | x8 | x8 | x8 | x8 | x6[K:bass] x2 | %72
 x8 | x8 | x8 | x8 | x8 | x8 | x8 | x8 | x8 | x8 | x8 | x8 | x4[K:treble] x4 | x4[K:bass] x4 | x8 | %87
 x8 | x8 | x8 | x8 | x8 | x8 | x8 | x8 | x8 | x8 | x8 | x8 | x8 | x8 |[K:treble] x6[K:bass] x2 | %102
 x8 | x8 | x8 | x8 | x8 | x8 | x8 | x8 | x8 | x8 | x8 | x8 | x8 | x8 | x8 | x8 | x8 | x8 | x8 | %121
 x8 | x8 | x8 | x8 | x5!8vb(! x3 | x4!8vb)! x[K:treble] x3 | x5[K:bass] x3 | x8 | x8 | x8 | x8 | %132
 x8 | x8 | x8 | x8 | x8 | x8 | x8 | x8 | x8 | x4 x2 x x/ [D,,,D,,]/- | !fermata![D,,,D,,]8 |] %143
V:5
 x8 |[K:bass] x7[K:treble] x | x8 | x8 | x8 | x8 | x8 | x8 | x8 | x8 | x8 | x8 | x8 | x8 | %14
[K:bass] x8 | x[K:treble] x7 | x8 | x8 | x8 | x8 | x8 | E4- (3E/G/E/(3^C/E/C/ (3E/G/E/(3C/E/C/ | %22
 x8 | x8 | x8 | x8 | x8 | x8 | x6 D^C | x8 | x8 | x8 | x8 | x8 | x8 | x8 | x8 | x8 | x8 | x8 | x8 | %41
 x8 | x8 | x8 | x8 | x8 | x4 z/ A/G/A/ z2 | x8 | F2 E2 DA-AG- | G2 ^F2 =F2 _E2- | ED^Fc- cB/A/ BB | %51
 A2 d[Dc] [DB][DA][DB][C^F] | [B,G][D^F][DG][CA] [B,B][DA][DB][CF] | x8 | x8 | AF x2 x4 | %56
 x2 GE F2 x2 | x8 | x8 | x8 | x8 | x8 | x8 | x8 | x8 | x8 | x8 | x8 | x8 | x8 | x8 | x8 | %72
 G x x2 x4[K:bass] | x8 | x8 | x8 | x8 | x8 | x8 | x8 | x8 | x8 | x8 | x8 |[K:treble] x8 | x8 | %86
 x8 | x4 G4- | G8 | G4 Gd x2 | _Ec x2 DB x2 | C^F x2 x4 | x8 | x8 | x8 | x8 | x8 | x8 | x8 | %99
 x2 z/!mp! B/A/G/ A2 ^F2 | G/=F/_E/D/ ^C=E FG A/G/A/F/ | d2 ^c2 A/B/G/A/ FA | x8 | x8 | %104
 x4 E/A/G/A/ F/ A/ E/ A/ | D/ A/ ^C/ A/ D/ A/ E/ A/ F/ A/ A,/ A/ =B,/ A/ C/ A/ | %106
 D/ A/ ^C/ A/ D/ A/ E/ A/ FEDG | FEF^C DCD=B, | ^CGFD C2 x2 | x8 | x8 | x4 z/ A/=B/^c/ d=c | %112
 F3 _E- E/C/[I:staff +1]A,/F,/ A,/[I:staff -1]C/E/C/ | %113
 D/[I:staff +1]B,/F,/D,/ G,/B,/D/[I:staff -1]G/- G x x2 | x8 | x8 | x8 | x8 | x8 | x8 | x8 | x8 | %122
 x8 | x4 [DAd]/A/e/A/ f/A/g/A/ | a/A/^c/A/ d/A/e/A/ f/A/e/A/ f/A/d/A/ | %125
 .^c [DA][GB][EA] .[FA] [Ad][Bd][A=c] | x8 | x8 | x7 B/ d/ | x8 | x8 | x8 | x8 | x8 | x8 | %135
 x6 z [CEG] | x2 x [^CEA] .[DA] x2 [DA] | .[DG] x x [DG] .[CG] x2 [CG] | %138
 .[CF] x x [CF] .[B,F] x2 F | .E z x E x4 | [Bd]4 [B^ce]2 [Ad]2 | d2 =c2 x4 | D8 |] %143
V:6
 x8 |[K:bass] x7[K:treble] x | x8 | x8 | x8 | x8 | x8 | x8 | x8 | x8 | x8 | x8 | x8 | x8 | %14
[K:bass] x8 | x[K:treble] x7 | x8 | x8 | x8 | x8 | x8 | x8 | x8 | x8 | x8 | x8 | x8 | x8 | x8 | %29
 x8 | x8 | x8 | x8 | x8 | x8 | x8 | x8 | x8 | x8 | x8 | x8 | x8 | x8 | x8 | x8 | x8 | x8 | x8 | %48
 x8 | x8 | x8 | x8 | x8 | x8 | x8 | x8 | x8 | x8 | x8 | x8 | x8 | x8 | x8 | x8 | x8 | x8 | x8 | %67
 x8 | x8 | x8 | x8 | x8 | x6[K:bass] x2 | x8 | x8 | x8 | x8 | x8 | x8 | x8 | x8 | x8 | x8 | x8 | %84
[K:treble] x8 | x8 | x8 | x8 | x8 | x8 | x8 | x8 | x8 | x8 | x8 | x8 | x8 | x8 | x8 | x8 | x8 | %101
 x8 | x8 | x8 | x8 | x8 | x8 | x8 | x8 | x8 | x8 | x8 | x8 | x8 | x8 | x8 | x8 | x8 | x8 | x8 | %120
 x8 | x8 | x8 | x8 | x8 | x8 | x8 | x8 | x8 | x8 | x8 | z2 z x A3 =G/F/ | x8 | x8 | x8 | x8 | x8 | %137
 x8 | x8 | x8 | x8 | x8 | x8 |] %143

